X:1
T:Blaenwern
C:Traditional
M:3/4
L:1/4
Q:1/4=84
K:C
G2G|A2A|GCE|E2D|C2A|A2G|GBA|G3|G2G|A2A|GCE|E2D|C2E|DcB|C2A|C3|]
